rospo-icon-theme-classic-common/24x24/apps/cutemarked.svg

<svg height="24" width="24" xmlns="http://www.w3.org/2000/svg"><path d="m20 21v-18c0-.554-.446-1-1-1h-14c-.554 0-1 .446-1 1v18c0 .554.446 1 1 1h14c .554 0 1-.446 1-1z" fill="#e4e4e4"/><path d="m4 21v .5c0 .554.446 1 1 1h14c .554 0 1-.446 1-1v-.5c0 .554-.446 1-1 1h-14c-.554 0-1-.446-1-1z" opacity=".2"/><path d="m7.0000001 7.9999997c-.5450001 0-1.0000001.5-1.0000001 1v6.0000003c0 .5.455 1 1.0000001 1h9.9999999c.545 0 1-.5 1-1v-6.0000002c0-.5-.455-1-1-1zm0 1h9.9999999v6.0000003h-9.9999999zm1 1.0000003v4h1v-2.2l.9999999 1.6 1-1.6v2.2h1v-4h-1l-1 1.6-.9999999-1.6zm5.9999999 0v2h-1l1 2h1l1-2h-1v-2z" opacity=".5"/><circle cx="17.5" cy="17.5" fill="#ff8c50" r="5.5"/><path d="m15 18.582v1.418h1.418l3.582-3.582-1.418-1.418z" fill="#fff"/><path d="m5 2c-.554 0-1 .446-1 1v .5c0-.554.446-1 1-1h14c .554 0 1 .446 1 1v-.5c0-.554-.446-1-1-1z" fill="#fff" opacity=".2"/></svg>

<svg xmlns="http://www.w3.org/2000/svg" width="24" height="24" version="1">
 <path style="fill:#cccccc" d="M 20,21 20,3 C 20,2.446 19.554,2 19,2 L 5,2 C 4.446,2 4,2.446 4,3 l 0,18 c 0,0.554 0.446,1 1,1 l 14,0 c 0.554,0 1,-0.446 1,-1 z"/>
 <path style="opacity:0.2" d="m 4,21 0,0.5 c 0,0.554 0.446,1 1,1 l 14,0 c 0.554,0 1,-0.446 1,-1 L 20,21 c 0,0.554 -0.446,1 -1,1 L 5,22 C 4.446,22 4,21.554 4,21 Z"/>
 <path style="opacity:0.5" d="M 7.0000001,7.9999997 C 6.455,7.9999997 6,8.4999997 6,8.9999997 L 6,15 c 0,0.5 0.455,1 1.0000001,1 L 17,16 c 0.545,0 1,-0.5 1,-1 l 0,-6.0000002 c 0,-0.5 -0.455,-1 -1,-1 z m 0,1 9.9999999,0 L 17,15 7.0000001,15 Z m 1,1.0000003 0,4 1,0 0,-2.2 L 10,13.4 l 1,-1.6 0,2.2 1,0 0,-4 -1,0 -1,1.6 L 9.0000001,10 Z M 14,10 l 0,2 -1,0 1,2 1,0 1,-2 -1,0 0,-2 z"/>
 <circle style="fill:#ff8c50" cx="17.5" cy="17.5" r="5.5"/>
 <path style="fill:#ffffff" d="M 15,18.582 15,20 16.418,20 20,16.418 18.582,15 Z"/>
 <path style="opacity:0.2;fill:#ffffff" d="M 5,2 C 4.446,2 4,2.446 4,3 l 0,0.5 c 0,-0.554 0.446,-1 1,-1 l 14,0 c 0.554,0 1,0.446 1,1 L 20,3 C 20,2.446 19.554,2 19,2 L 5,2 Z"/>
</svg>
